X:0413
T:Capt. Jiphson's Whim
N:Capt. Jiphson's Wheem [in index]
M:2/4
L:1/8
Q:1/4=120
P:ABA
N:Aird prints a da capo
I: :: || DC
Z:Jack Campin * www.campin.me.uk * 2009
K:G
P:A
d|  B(B/c/) .B.B|d2 TcB|(AG)(AB)|(G/F/G/A/) .Gc|\
    B(B/c/) .B.B|d2 TcB|(AG)(AB)| G2         G:|
P:B
B|(TAG)(AB)     |c2  Bd| cBAG   |(A/G/A/B/) .AB|\
  (TAG)(AB)     |c2  Bd| cBAG   | d2-        d|]

